X: 92
T: No_181_Song_of_an_Old_Dance_(d).krn
N: Derived from No_181_Song_of_an_Old_Dance_(d).krn
%%abc-version 2.0
%%abcx-abcm2ps-target-version 5.9.1 (29 Sep 2008)
%%abc-creator hum2abc beta
%%abcx-conversion-date 2019/03/15 08:38:45
%%humdrum-veritas 3360720591
%%humdrum-veritas-data 1115653167
%%linebreak <none>
%%barnumbers 0
L: 1/8
M: 2/4
K: Eb clef=bass
[K:clef=bass][M:2/4]z2z3/ F,/ | 
G,3/F,/E,2 | 
F,3/F,/ (3F,F,F, | 
F,7/G,/ | 
G,3/F,/E,2 | 
F,3/E,/ (3E,E,E, | 
E,7/B,,/ | 
E,3/E,/E,2 [I:setbarnb 9]| 
F,/E,E,/ (3E,E,E, | 
F,7/G,/ | 
G,3/F,/E,2 | 
F,3/F,/ (3F,E,E, | 
E,7/E,/ :|]  
E,7/B,,/ | 
E,3/E,/E,2 | 
F,/E,E,/ (3E,E,E, | 
F,2z B,/B,/ | 
(B,3E,) | 
B,2B,3/B,/ | 
B,2z2 |]  



